docs/svgs/floor-shade.svg

<svg viewBox="0 0 24 24" height="24px" width="24px" fill="#44739e" xmlns="http://www.w3.org/2000/svg"><title>hue:floor-shade</title><desc>Source: https://github.com/arallsopp/hass-hue-icons</desc><path d="M 9.3125 1.726562 C 10.789062 1.425781 13.207031 1.425781 14.683594 1.726562 C 16.136719 2.023438 16.09375 2.5 14.621094 2.789062 C 13.167969 3.070312 10.835938 3.070312 9.382812 2.789062 C 7.90625 2.5 7.863281 2.023438 9.3125 1.726562 M 15.667969 9.324219 C 16.570312 9.070312 17.089844 8.75 17.21875 8.417969 C 17.242188 8.363281 17.25 8.308594 17.25 8.253906 L 17.25 1.496094 C 17.25 1.4375 17.242188 1.382812 17.21875 1.328125 C 17.09375 1.007812 16.609375 0.699219 15.757812 0.449219 C 13.695312 -0.148438 10.304688 -0.148438 8.238281 0.449219 C 7.390625 0.699219 6.90625 1.007812 6.78125 1.328125 C 6.757812 1.382812 6.75 1.4375 6.75 1.496094 L 6.75 8.253906 C 6.75 8.308594 6.757812 8.363281 6.78125 8.417969 C 6.910156 8.75 7.433594 9.070312 8.335938 9.324219 C 9.160156 9.554688 10.1875 9.683594 11.25 9.730469 L 11.25 20.269531 C 9.054688 20.351562 7.289062 20.796875 6.855469 21.375 C 6.785156 21.464844 6.75 21.558594 6.75 21.65625 L 6.75 22.59375 C 6.75 23.371094 9.101562 24 12 24 C 14.898438 24 17.25 23.371094 17.25 22.59375 L 17.25 21.65625 C 17.25 20.949219 15.292969 20.363281 12.75 20.265625 L 12.75 9.730469 C 13.816406 9.6875 14.84375 9.554688 15.667969 9.324219 "/></svg>

<svg viewBox="0 0 24 24" height="24px" width="24px" fill="#44739e" xmlns="http://www.w3.org/2000/svg"><title>hue:floor-shade</title><desc>Source: https://github.com/arallsopp/hass-hue-icons</desc><path d="M9.31,1.73c1.48-0.3,3.89-0.3,5.37,0c1.45,0.3,1.41,0.77-0.06,1.06c-1.45,0.28-3.79,0.28-5.24,0 C7.91,2.5,7.86,2.02,9.31,1.73 M15.67,9.32c0.9-0.25,1.42-0.57,1.55-0.91c0.02-0.05,0.03-0.11,0.03-0.16V1.5 c0-0.06-0.01-0.11-0.03-0.17c-0.12-0.32-0.61-0.63-1.46-0.88c-2.06-0.6-5.45-0.6-7.52,0C7.39,0.7,6.91,1.01,6.78,1.33 C6.76,1.38,6.75,1.44,6.75,1.5v6.76c0,0.05,0.01,0.11,0.03,0.16c0.13,0.33,0.65,0.65,1.55,0.91c0.82,0.23,1.85,0.36,2.91,0.41v10.54 c-2.2,0.08-3.96,0.53-4.39,1.11c-0.07,0.09-0.11,0.18-0.11,0.28v0.94C6.75,23.37,9.1,24,12,24s5.25-0.63,5.25-1.41v-0.94 c0-0.71-1.96-1.29-4.5-1.39V9.73C13.82,9.69,14.84,9.55,15.67,9.32"/></svg>
